dist/svg/swimming-pool-fill.svg

<svg xmlns="http://www.w3.org/2000/svg" viewBox="0 0 24 24"><path d="M8.617 3.282c-.587.071-1.099.33-1.552.782a2.74 2.74 0 0 0-.696 1.116l-.109.32-.011 5.295-.011 5.295-.349-.018c-.308-.016-.486-.064-1.509-.401a43 43 0 0 0-1.271-.408c-.15-.034-.42.042-.579.163-.346.262-.373.781-.056 1.097.132.131.265.185 1.366.55 2.009.665 2.279.675 3.896.137l.804-.267h.92l.804.267c1.541.512 1.931.512 3.472 0l.804-.267h.92l.804.267c1.617.538 1.887.528 3.896-.137 1.101-.365 1.234-.419 1.366-.55.317-.316.29-.835-.056-1.097-.159-.121-.429-.197-.579-.163a41 41 0 0 0-1.271.411l-1.16.386-.46-.001c-.412-.001-.501-.015-.85-.132l-.391-.131.011-5.068.01-5.068.093-.188c.117-.238.36-.482.591-.594.1-.048.314-.102.476-.12.163-.019.348-.061.413-.094.376-.195.511-.721.274-1.069-.201-.295-.435-.371-.956-.313-.643.071-1.133.31-1.606.782a2.7 2.7 0 0 0-.813 1.803l-.024.373H7.751l.015-.29c.019-.346.126-.592.359-.825.216-.217.463-.328.815-.367.338-.038.487-.104.634-.278A.9.9 0 0 0 9.76 4a.9.9 0 0 0-.186-.48c-.198-.235-.457-.299-.957-.238m6.699 5.341c.31.261.198.744-.199.858-.186.053-7.048.052-7.24-.001a.494.494 0 0 1-.193-.857l.122-.103h7.388zm0 3c.31.261.198.744-.199.858-.186.053-7.048.052-7.24-.001a.494.494 0 0 1-.193-.857l.122-.103h7.388zm-.076 3.467-.001.33-.366.009c-.486.011-.668.052-1.613.365-.799.264-.801.264-1.26.264s-.464-.001-1.211-.25c-1.05-.349-1.197-.38-1.809-.378-.396.002-.595.022-.836.086a5 5 0 0 1-.35.084c-.019 0-.034-.189-.034-.42v-.42h7.48zM2.8 18.286a.736.736 0 0 0-.326 1.237c.132.131.265.185 1.366.55 2.009.665 2.279.675 3.896.137l.804-.267h.92l.804.267c.83.276 1.338.39 1.736.39s.906-.114 1.736-.39l.804-.267h.92l.804.267c1.617.538 1.887.528 3.896-.137 1.101-.365 1.234-.419 1.366-.55.317-.316.29-.835-.056-1.097-.159-.121-.429-.197-.579-.163a41 41 0 0 0-1.271.411l-1.16.386-.46-.001c-.457-.001-.466-.003-1.211-.251-1.036-.344-1.199-.379-1.789-.379s-.753.035-1.789.379c-.747.249-.754.25-1.211.25s-.464-.001-1.211-.25c-1.036-.344-1.199-.379-1.789-.379s-.753.035-1.789.379c-.745.248-.754.25-1.211.251l-.46.001-1.16-.388c-.638-.213-1.223-.397-1.3-.407a.8.8 0 0 0-.28.021" fill-rule="evenodd"/></svg>

<svg fill="none" xmlns="http://www.w3.org/2000/svg" viewBox="0 0 24 24"><path d="M8.617 3.282 C 8.030 3.353,7.518 3.612,7.065 4.064 C 6.732 4.396,6.521 4.735,6.369 5.180 L 6.260 5.500 6.249 10.795 L 6.238 16.090 5.889 16.072 C 5.581 16.056,5.403 16.008,4.380 15.671 C 3.742 15.460,3.170 15.276,3.109 15.263 C 2.959 15.229,2.689 15.305,2.530 15.426 C 2.184 15.688,2.157 16.207,2.474 16.523 C 2.606 16.654,2.739 16.708,3.840 17.073 C 5.849 17.738,6.119 17.748,7.736 17.210 L 8.540 16.943 9.000 16.943 L 9.460 16.943 10.264 17.210 C 11.805 17.722,12.195 17.722,13.736 17.210 L 14.540 16.943 15.000 16.943 L 15.460 16.943 16.264 17.210 C 17.881 17.748,18.151 17.738,20.160 17.073 C 21.261 16.708,21.394 16.654,21.526 16.523 C 21.843 16.207,21.816 15.688,21.470 15.426 C 21.311 15.305,21.041 15.229,20.891 15.263 C 20.830 15.276,20.258 15.461,19.620 15.674 L 18.460 16.060 18.000 16.059 C 17.588 16.058,17.499 16.044,17.150 15.927 L 16.759 15.796 16.770 10.728 L 16.780 5.660 16.873 5.472 C 16.990 5.234,17.233 4.990,17.464 4.878 C 17.564 4.830,17.778 4.776,17.940 4.758 C 18.103 4.739,18.288 4.697,18.353 4.664 C 18.729 4.469,18.864 3.943,18.627 3.595 C 18.426 3.300,18.192 3.224,17.671 3.282 C 17.028 3.353,16.538 3.592,16.065 4.064 C 15.563 4.565,15.300 5.149,15.252 5.867 L 15.228 6.240 11.490 6.240 L 7.751 6.240 7.766 5.950 C 7.785 5.604,7.892 5.358,8.125 5.125 C 8.341 4.908,8.588 4.797,8.940 4.758 C 9.278 4.720,9.427 4.654,9.574 4.480 C 9.671 4.365,9.760 4.135,9.760 4.000 C 9.760 3.865,9.671 3.635,9.574 3.520 C 9.376 3.285,9.117 3.221,8.617 3.282 M15.316 8.623 C 15.626 8.884,15.514 9.367,15.117 9.481 C 14.931 9.534,8.069 9.533,7.877 9.480 C 7.487 9.372,7.377 8.881,7.684 8.623 L 7.806 8.520 11.500 8.520 L 15.194 8.520 15.316 8.623 M15.316 11.623 C 15.626 11.884,15.514 12.367,15.117 12.481 C 14.931 12.534,8.069 12.533,7.877 12.480 C 7.487 12.372,7.377 11.881,7.684 11.623 L 7.806 11.520 11.500 11.520 L 15.194 11.520 15.316 11.623 M15.240 15.090 L 15.239 15.420 14.873 15.429 C 14.387 15.440,14.205 15.481,13.260 15.794 C 12.461 16.058,12.459 16.058,12.000 16.058 C 11.542 16.058,11.536 16.057,10.789 15.808 C 9.739 15.459,9.592 15.428,8.980 15.430 C 8.584 15.432,8.385 15.452,8.144 15.516 C 7.970 15.562,7.812 15.600,7.794 15.600 C 7.775 15.600,7.760 15.411,7.760 15.180 L 7.760 14.760 11.500 14.760 L 15.240 14.760 15.240 15.090 M2.800 18.286 C 2.244 18.449,2.068 19.118,2.474 19.523 C 2.606 19.654,2.739 19.708,3.840 20.073 C 5.849 20.738,6.119 20.748,7.736 20.210 L 8.540 19.943 9.000 19.943 L 9.460 19.943 10.264 20.210 C 11.094 20.486,11.602 20.600,12.000 20.600 C 12.398 20.600,12.906 20.486,13.736 20.210 L 14.540 19.943 15.000 19.943 L 15.460 19.943 16.264 20.210 C 17.881 20.748,18.151 20.738,20.160 20.073 C 21.261 19.708,21.394 19.654,21.526 19.523 C 21.843 19.207,21.816 18.688,21.470 18.426 C 21.311 18.305,21.041 18.229,20.891 18.263 C 20.830 18.276,20.258 18.461,19.620 18.674 L 18.460 19.060 18.000 19.059 C 17.543 19.058,17.534 19.056,16.789 18.808 C 15.753 18.464,15.590 18.429,15.000 18.429 C 14.410 18.429,14.247 18.464,13.211 18.808 C 12.464 19.057,12.457 19.058,12.000 19.058 C 11.543 19.058,11.536 19.057,10.789 18.808 C 9.753 18.464,9.590 18.429,9.000 18.429 C 8.410 18.429,8.247 18.464,7.211 18.808 C 6.466 19.056,6.457 19.058,6.000 19.059 L 5.540 19.060 4.380 18.672 C 3.742 18.459,3.157 18.275,3.080 18.265 C 3.003 18.254,2.877 18.263,2.800 18.286 " stroke="none" fill-rule="evenodd" fill="currentColor"/></svg>
